X:1
T:Astana, 87.87.87.87.87
T:Astana, 87.87.87.87.87
T:H. R. Jeffrey, 1885 & 1911
T:Public Domain Courtesy of the Cyber Hymnal™
C:H. R. Jeffrey, 1885 & 1911
Z:Public Domain
Z:Courtesy of the Cyber Hymnal™
%%score ( 1 2 ) ( 3 4 )
L:1/8
Q:1/4=158
M:3/4
K:Bb
V:1 treble 
V:2 treble 
V:3 bass 
V:4 bass 
V:1
 [DF]4 [DF]2 [EG]4 [EG]2 | [EB]4 [EG]2 [EG]2 [DF]4 | ([DF]2 [CE]2) [B,D]2 [DF]4 [DB]2 | %3
 ([FB]2 [EA]2) [DB]2 [Fc]6 | [Fd]4 [Fd]2 [Ge]4 [Fd]2 | [Gc]4 [EG]2 [Ec]2 [EB]4 | %6
 [EB]4 [EB]2 (B3 A) [_EG]2 | [FA]4 [FB]2 [Fc]6 | [Fd]4 [Fd]2 [Ge]4 [Fd]2 | %9
 [Gc]4 [EG]2 [Ec]2 [EB]4 | (B2 A2) [_EG]2 F4 [DF]2 | (A2 G2) [EA]2 [DB]6 | %12
 [DF]4 [DF]2 [EG]4 [EG]2 | [EB]4 [EG]2 [EG]2 [DF]4 | ([DF]2 [CE]2) [B,D]2 [DF]4 [DB]2 | %15
 ([FB]2 [EA]2) [DB]2 [Fc]6 | [Fd]4 [Fd]2 [Ge]4 [Fd]2 | [Gc]4 [EG]2 [Ec]2 [EB]4 | %18
 ([=EB]2 A2) [EG]2 F4 [DF]2 | (A2 G2) [EA]2 [DB]6 |] %20
V:2
 x12 | x12 | x12 | x12 | x12 | x12 | x6 =E4 x2 | x12 | x12 | x12 | =E4 F4 x4 | E4 x8 | x12 | x12 | %14
 x12 | x12 | x12 | x12 | x6 F4 x2 | E4 x8 |] %20
V:3
 [B,,B,]4 [B,,B,]2 [B,,B,]4 [B,,B,]2 | [E,G,]4 [E,B,]2 [E,B,]2 [B,,B,]4 | %2
 (B,2 F,2) [B,,F,]2 [B,,B,]4 [B,,B,]2 | ([D,B,]2 [C,F,]2) [B,,B,]2 [F,A,]6 | B,4 B,2 B,4 B,2 | %5
 [E,B,]4 [E,B,]2 [E,G,]2 [E,G,]4 | [E,G,]4 [E,G,]2 [C,G,]4 [C,C]2 | [F,C]4 [F,D]2 [F,E]6 | %8
 B,4 B,2 B,4 B,2 | [E,B,]4 [E,B,]2 [E,G,]2 [E,G,]4 | [C,G,]4 [C,C]2 [F,A,]4 [F,B,]2 | %11
 [F,C]4 [F,C]2 [B,,B,]6 | [B,,B,]4 [B,,B,]2 [E,B,]4 [E,B,]2 | [E,G,]4 [E,B,]2 [B,,B,]2 [B,,B,]4 | %14
 (B,2 F,2) [B,,F,]2 [B,,B,]4 [B,,B,]2 | ([D,B,]2 [C,F,]2) [B,,F,]2 [F,A,]6 | B,4 B,2 B,4 B,2 | %17
 [E,B,]4 [E,B,]2 [E,G,]2 [E,G,]4 | [C,G,]4 [C,C]2 [F,A,]4 [F,B,]2 | [F,C]4 [F,C]2 [B,,B,]6 |] %20
V:4
 x12 | x12 | B,,4 x8 | x12 | B,4 B,2 B,4 B,2 | x12 | x12 | x12 | B,4 B,2 B,4 B,2 | x12 | x12 | %11
 x12 | x12 | x12 | B,,4 x8 | x12 | B,4 B,2 B,4 B,2 | x12 | x12 | x12 |] %20

